X:80
T:Obal, Obal, Ol Found Del Prat
M:2/4
L:1/8
N:Assez anim
N:La Bourre 4th edition 1929, page 80
Z:Steve Mansfield www.lesession.co.uk June 2012
K:A
(3 E E/ E | A c c B | A2 A B | c A (dc) |
B2 (3 E E/ E | A c c B | A2 A B | c A (dc) | 
B2 (3 B > c d | e2 (3 d > c B | A2 (3 B > c d | e d c B |
A2 A B | c A (dc) | !fermata! B2 (3 B > c d | e d c B |
A2 B2 | B2 F G | A2 B2 B2 | F G | !fermata! A2 z2 |]
<end>
<start>
